icons/label-help.svg

<svg xmlns="http://www.w3.org/2000/svg" width="24" height="24" viewBox="0 0 24 24">
  <path d="M15.0924635,4 C15.6691887,4 16.2178408,4.24896086 16.5976169,4.68299078 L21.8476169,10.6829908 C22.5074124,11.4370428 22.5074124,12.5629572 21.8476169,13.3170092 L16.5976169,19.3170092 C16.2178408,19.7510391 15.6691887,20 15.0924635,20 L4,20 C2.8954305,20 2,19.1045695 2,18 L2,6 C2,4.8954305 2.8954305,4 4,4 L15.0924635,4 Z M10.0001686,14 C9.44788858,14 9.00016858,14.4477 9.00016858,15 C9.00016858,15.5523 9.44788858,16 10.0001686,16 C10.5524586,16 11.0001686,15.5523 11.0001686,15 C11.0001686,14.4477 10.5524586,14 10.0001686,14 Z M10.0001686,8 C9.36892858,8 8.84563858,8.15996 8.42788858,8.43846 C8.01483858,8.71383 7.74882858,9.07562 7.57934858,9.41459 C7.39409858,9.78507 7.54426858,10.23558 7.91475858,10.42082 C8.28523858,10.60606 8.73574858,10.45589 8.92098858,10.08541 C9.00149858,9.92438 9.11048858,9.78617 9.25993858,9.68654 C9.40469858,9.59004 9.63140858,9.5 10.0001686,9.5 C10.2799186,9.5 10.5530786,9.58656 10.7376686,9.725 C10.9022286,9.84842 11.0001686,10.01009 11.0001686,10.25 C11.0001686,10.42662 10.9593586,10.51381 10.9229986,10.56835 C10.8776486,10.63639 10.7994086,10.71162 10.6466286,10.81349 C10.5702386,10.86441 10.4880486,10.9139 10.3877086,10.97411 L10.3815586,10.9778 C10.2878586,11.03402 10.1772086,11.10041 10.0684786,11.1729 C9.84624858,11.32107 9.58073858,11.52712 9.37609858,11.83412 C9.14635858,12.17878 9.23951858,12.64442 9.58417858,12.87417 C9.92883858,13.10391 10.3944886,13.01075 10.6242286,12.66609 C10.6695886,12.59803 10.7478286,12.52279 10.9005986,12.42093 C10.9769786,12.37001 11.0591686,12.32052 11.1594986,12.26032 L11.1657686,12.25656 C11.2594286,12.20036 11.3700286,12.134 11.4787086,12.06154 C11.7009186,11.91339 11.9664386,11.70737 12.1710686,11.4004 C12.3847686,11.07994 12.5001686,10.69838 12.5001686,10.25 C12.5001686,9.48991 12.1397686,8.90158 11.6376686,8.525 C11.1555886,8.16344 10.5537486,8 10.0001686,8 Z"/>
</svg>

<svg xmlns="http://www.w3.org/2000/svg" viewBox="0 0 24 24">
  <path d="M15.1 4a2 2 0 0 1 1.5.68l5.25 6a2 2 0 0 1 0 2.64l-5.25 6a2 2 0 0 1-1.5.68H4a2 2 0 0 1-2-2V6c0-1.1.9-2 2-2h11.1zM10 14a1 1 0 1 0 0 2 1 1 0 0 0 0-2zm0-6c-.63 0-1.15.16-1.57.44a2.5 2.5 0 0 0-.85.97.75.75 0 1 0 1.34.68 1 1 0 0 1 .34-.4c.14-.1.37-.19.74-.19.28 0 .55.09.74.22.16.13.26.29.26.53 0 .18-.04.26-.08.32a.96.96 0 0 1-.27.24l-.26.16-.32.2c-.22.15-.49.36-.7.66a.75.75 0 0 0 1.25.84.96.96 0 0 1 .28-.25l.26-.16.32-.2a2.03 2.03 0 0 0 1.02-1.81 2.1 2.1 0 0 0-.86-1.72A2.76 2.76 0 0 0 10 8z"/>
</svg>
